svg/google-maps-light.svg

<svg xmlns="http://www.w3.org/2000/svg" xml:space="preserve" viewBox="0 0 512 512"><path d="M255.6 0c14.6 0 29.7 1.9 44.1 5.6L201.2 122l-71.1-59.7L125 58c33.6-36.9 80.8-58 130.6-58m58.2 9.7-78.6 92.8c6.7-1.9 13.7-2.8 20.8-2.8 20.6 0 39.9 8 54.4 22.5s22.5 33.8 22.5 54.4c0 2.5-.1 5-.4 7.5l3.3-4c20.2-24 47.6-56.7 74.8-89-20.9-37.9-55.9-67.2-96.8-81.4M79.3 176.3c0 27.5 4.3 51.5 13.4 74.7l44-52.2 55.9-66.5-43.5-36.5-32.7-27.5c-23.9 30.9-37.1 69-37.1 108m95.1 195.2 102-121.1c-6.5 1.8-13.4 2.7-20.4 2.7-20.6 0-39.9-8-54.4-22.5s-22.5-33.8-22.5-54.4c0-2.6.1-5.1.4-7.6l-32.8 38.9-48 57.1c14.2 29.8 35.4 56.3 57.8 84.4 5.9 7.3 11.9 14.7 17.9 22.5m67.1 118.2c5.9 18.4 7.8 22.3 14.8 22.3s9-4 14.9-22.5c5.2-16.3 12.3-38.5 30.4-66.4 18-28.2 36.6-51.5 54.5-73.9 42.8-53.7 76.6-96.1 76.6-172.4 0-25.2-5.2-49.5-15.5-72.4l-71 84.2c-18.8 22.4-31.3 37.3-31.6 37.6l-.1-.1-131.7 156.3c8.8 11.7 18.4 25.5 28.4 41 18 27.9 25.1 50.1 30.3 66.3" style="fill:#fff"/></svg>

<?xml version="1.0" encoding="utf-8"?>
<!-- Generator: Adobe Illustrator 28.2.0, SVG Export Plug-In . SVG Version: 6.00 Build 0)  -->
<svg version="1.1" id="Layer_1" xmlns="http://www.w3.org/2000/svg" xmlns:xlink="http://www.w3.org/1999/xlink" x="0px" y="0px"
	 viewBox="0 0 512 512" style="enable-background:new 0 0 512 512;" xml:space="preserve">
<style type="text/css">
	.st0{fill:#FFFFFF;}
</style>
<path class="st0" d="M255.6,0c14.6,0,29.7,1.9,44.1,5.6l-98.5,116.4l-71.1-59.7l-5.1-4.3C158.6,21.1,205.8,0,255.6,0z M313.8,9.7
	l-78.6,92.8c6.7-1.9,13.7-2.8,20.8-2.8c20.6,0,39.9,8,54.4,22.5c14.5,14.5,22.5,33.8,22.5,54.4c0,2.5-0.1,5-0.4,7.5l3.3-4
	c20.2-24,47.6-56.7,74.8-89C389.7,53.2,354.7,23.9,313.8,9.7z M79.3,176.3c0,27.5,4.3,51.5,13.4,74.7l44-52.2l55.9-66.5l-43.5-36.5
	l-32.7-27.5C92.5,99.2,79.3,137.3,79.3,176.3z M174.4,371.5l102-121.1c-6.5,1.8-13.4,2.7-20.4,2.7c-20.6,0-39.9-8-54.4-22.5
	c-14.5-14.5-22.5-33.8-22.5-54.4c0-2.6,0.1-5.1,0.4-7.6l-32.8,38.9l-48,57.1c14.2,29.8,35.4,56.3,57.8,84.4
	C162.4,356.3,168.4,363.7,174.4,371.5z M241.5,489.7c5.9,18.4,7.8,22.3,14.8,22.3c7,0,9-4,14.9-22.5c5.2-16.3,12.3-38.5,30.4-66.4
	c18-28.2,36.6-51.5,54.5-73.9c42.8-53.7,76.6-96.1,76.6-172.4c0-25.2-5.2-49.5-15.5-72.4l-71,84.2c-18.8,22.4-31.3,37.3-31.6,37.6
	l-0.1-0.1L182.8,382.4c8.8,11.7,18.4,25.5,28.4,41C229.2,451.3,236.3,473.5,241.5,489.7z"/>
</svg>
